!!!COM:	Bach, Johann Sebastian
!!!OMV:	O Gott, du frommer Gott
!!!OTL:	O Gott, du frommer Gott
**kern	**fb	**kern	**kern	**kern	**kern
*part5	*part5	*part4	*part3	*part2	*part1
*staff5	*	*staff4	*staff3	*staff2	*staff1
*I"Continuo	*	*I"Voice	*I"Voice	*I"Voice	*I"Voice
*I'Cont.	*	*I'V	*I'V	*I'V	*I'V
*clefF4	*	*clefF4	*clefGv2	*clefG2	*clefG2
*Trd0c0	*	*	*	*	*
*k[f#c#]	*	*k[f#c#]	*k[f#c#]	*k[f#c#]	*k[f#c#]
*M4/4	*	*M4/4	*M4/4	*M4/4	*M4/4
4EE	.	4E	8GL	4B	8eL
.	.	.	8AJ	.	8f#J
=2	=2	=2	=2	=2	=2
4E	.	4E	4B	4e	4g
4D	.	4D	4d	4f#	4a
4G	.	4G	4d	4g	4b
8DL	.	8DL	8dL	4f#	4a
8C#J	.	8C#J	8eJ	.	.
=3	=3	=3	=3	=3	=3
8BBL	.	8BBL	8f#L	4.b	4dd
8G	.	8G	8dJ	.	.
8E	6 5	8E	8gL	.	4cc#
8F#J	#	8F#J	8f#J	8a#X	.
4B;	.	4B;	4d;	4f#;	4b;
4F#	5	4F#	4c#	4f#	4a
=4	=4	=4	=4	=4	=4
4B	5	4B	4B	8f#L	4dd
.	6	.	.	8g	.
4A	7	4A	4c#	8g	4cc#
.	6	.	.	8f#J	.
4G	7	4G	8d#XL	8f#L	4b
.	6	.	8eJ	8e	.
4F#	7	4F#	4f#	8e	4a
.	#6\	.	.	8d#XJ	.
=	=	=	=	=	=
4E	.	4E	4.B	4e	4g
4BB	#	4BB	.	4d#X	4f#
.	7	.	8A	.	.
4EE;	.	4E;	4G;	4B;	4e;
=5:|!	=5:|!	=5:|!	=5:|!	=5:|!	=5:|!
8EL	.	8EL	4G	4B	4e
8DJ	.	8DJ	.	.	.
=6	=6	=6	=6	=6	=6
8C#L	6	8C#L	4A	8eL	4a
8BB	.	8BB	.	8d	.
8C#	.	8C#	4A	8e	8aL
8AAJ	.	8AAJ	.	8c#J	8gJ
4D	.	4D	4A	4d	4f#
8GL	5	8GL	4G	4d	4b
8F#J	.	8F#J	.	.	.
=7	=7	=7	=7	=7	=7
!!linebreak:original
4E	6 5	4E	4G	4c#	4b
4F#	#	4F#	4F#	4c#	4a#X
4BB;	#	4BB;	4F#;	4d#X;	4b;
8EL	.	8EL	8GL	4e	4b
8F#J	.	8F#J	8AJ	.	.
=8	=8	=8	=8	=8	=8
4G	6	4G	4B	8eL	4ee
.	.	.	.	8f#J	.
4A	7 3	4A	4c#	4g	4ee
4D	7	4D	4c#	4f#	8ff#L
.	.	.	.	.	8eeJ
8GL	5	8GL	4B	8bL	4dd
8F#J	.	8F#J	.	8aJ	.
=9	=9	=9	=9	=9	=9
4E	8	4E	4.B	8gL	8eeL
.	7	.	.	8f#J	8ddJ
4F#	4	4F#	.	4e	4cc#
.	#	.	8A#X	.	.
4BB;	.	4BB;	4F#;	4d;	4b;
4F#	#	4F#	4A#	4f#	4cc#
=10	=10	=10	=10	=10	=10
4B	5	4B	8BL	4f#	4dd
.	.	.	8AnJ	.	.
8EL	6	8EL	8GL	4e	4cc#
8F#J	.	8F#J	8AJ	.	.
4G	5	4G	8BL	8dL	4b
.	6	.	8c#J	8eJ	.
8F#L	6	8F#L	8dL	4f#	4a
8EJ	nr6 4 2	8EJ	8cnJ	.	.
=11	=11	=11	=11	=11	=11
4D#X	6	4D#X	4B	4f#	8bL
.	5	.	.	.	8aJ
4E	.	4E	4B	4e	4g
4BB;	#	4BB;	4B;	4d#X;	4f#;
8EL	.	8EL	4G	4B	8eL
8DnJ	.	8DnJ	.	.	8f#J
=12	=12	=12	=12	=12	=12
!!pagebreak:original
8CnL	.	8CnL	4G	4e	4g
8BBJ	.	8BBJ	.	.	.
4AA	5	4AA	4cn	8eL	4a
.	6	.	.	8f#J	.
4GG	.	4GG	4d	4g	4b
8AAL	6	8AAL	8c#XL	4f#	8aL
8BBJ	6 5 #	8BBJ	8d#XJ	.	8gJ
=13	=13	=13	=13	=13	=13
8CnL	6	8CnL	4e	4e	8aL
8AAJ	7 5	8AAJ	.	.	8gJ
4BB	#	4BB	4B	4d#X	4f#
4EE;	.	4E;	4G;	4B;	4e;
4E	#	4E	4B	4g#X	4ee
=14	=14	=14	=14	=14	=14
8AL	.	8AL	4c#X	4a	4ee
8G	.	8G	.	.	.
8F#	7 5	8F#	4c#	4a	4ee
8EJ	.	8EJ	.	.	.
4D	8	4D	8dL	4a	4ff#
.	7	.	8c#J	.	.
8EL	.	8EL	8BL	8gnL	4ee
8F#J	7 #	8F#J	8A#XJ	8f#J	.
=15	=15	=15	=15	=15	=15
8GL	5	8GL	4B	4b	4dd
8EJ	7 5	8EJ	.	.	.
4F#	#	4F#	8f#L	4a#X	4cc#
.	.	.	8eJ	.	.
4BB;	#	4BB;	4d#X;	4f#;	4b;
=||	=||	=||	=||	=||	=||
*-	*-	*-	*-	*-	*-
!!!system-decoration: s1,s2,s3,s4,s5
